X:232
T: Alter Reihen um das erste Veilchen
N: A0280B
O: Europa, Mitteleuropa, Deutschland
N: Praetorius Mus. Sion. VIII 1610 No. 264
R: Romanze, Ballade, Lied
M: 4/4
L: 1/4
K: G
G | G2GG | F2FF | G_BAG | F2z
G | G2GG | F2FF | G_BAG | F2z
_B | _BBBB | A2AA | GGFF | G3

@@@ Tune index: 232
